src/icons/solid/symbols/eye-hidden.svg

<svg width="24" height="24" viewBox="0 0 24 24" fill="none" xmlns="http://www.w3.org/2000/svg">
<path fill-rule="evenodd" clip-rule="evenodd" d="M20.8378 3.21871C21.1287 2.92722 21.6104 2.9273 21.9013 3.21871C22.1922 3.51025 22.1922 3.99261 21.9013 4.28414L18.6015 7.59176C20.0761 8.54675 21.3898 9.70322 22.413 10.8291V10.8183C23.1955 11.6929 23.1954 12.9997 22.413 13.8642C20.0054 16.5182 16.013 19.283 11.9902 19.2529H11.8495C10.4853 19.2529 9.13089 18.9217 7.83685 18.3789L4.44623 21.7763C4.29575 21.9271 4.10461 21.997 3.914 21.997C3.72354 21.9969 3.53312 21.927 3.38275 21.7763C3.09185 21.4848 3.0919 21.0024 3.38275 20.7109L20.8378 3.21871ZM9.85345 16.3681C10.5154 16.7198 11.2375 16.9305 12.0097 16.9306C13.2335 16.9306 14.3774 16.4582 15.2402 15.5937C16.1029 14.7292 16.5751 13.5829 16.5751 12.3564C16.5751 11.5824 16.3637 10.8486 16.0126 10.1953L9.85345 16.3681Z" fill="#3C3B44"/>
<path d="M11.9999 5.45016C13.294 5.42 14.568 5.69183 15.7919 6.15426L13.7958 8.15426C13.234 7.91299 12.6219 7.78219 11.9999 7.78219C9.48203 7.7822 7.43565 9.83327 7.43548 12.3564C7.43548 12.9897 7.56581 13.5932 7.80658 14.1562H7.79681L5.0683 16.8906C3.72402 15.9858 2.52985 14.9302 1.58685 13.8847C0.804371 13.0101 0.804395 11.7034 1.58685 10.8388C3.99451 8.19492 7.94704 5.3597 11.9999 5.45016Z" fill="#3C3B44"/>
</svg>

<svg xmlns="http://www.w3.org/2000/svg" width="24" height="24" fill="none" viewBox="0 0 24 24"><path fill="currentColor" fill-rule="evenodd" d="M20.838 3.219a.756.756 0 0 1 1.063 0 .76.76 0 0 1 0 1.065l-3.3 3.308a19.8 19.8 0 0 1 3.812 3.237v-.01a2.27 2.27 0 0 1 0 3.045c-2.408 2.654-6.4 5.419-10.423 5.389h-.14c-1.365 0-2.72-.331-4.013-.874l-3.39 3.397a.74.74 0 0 1-.533.221c-.19 0-.38-.07-.531-.22a.76.76 0 0 1 0-1.066zM9.853 16.369c.662.35 1.385.561 2.157.562a4.53 4.53 0 0 0 3.23-1.337 4.54 4.54 0 0 0 1.335-3.238 4.56 4.56 0 0 0-.562-2.16z" clip-rule="evenodd"/><path fill="currentColor" d="M12 5.45c1.294-.03 2.568.242 3.792.704l-1.996 2A4.6 4.6 0 0 0 12 7.782a4.573 4.573 0 0 0-4.193 6.374h-.01l-2.729 2.735a19.2 19.2 0 0 1-3.481-3.006 2.27 2.27 0 0 1 0-3.046C3.995 8.195 7.947 5.359 12 5.45"/></svg>
